X:1
T:Title
%%score { 1 | 2 }
L:1/8
M:4/4
K:Eb
V:1 treble nm="Grand Piano"
V:2 bass 
V:1
 z4 z2[Q:1/4=100] GF | E>E EF G2 [GB][FA] | G>G G[GB] [Ge]2 [Ge][Bd] | ccBG [EG]2 [EF]2 | %4
[M:3/4] [DF]6 |[M:1/4] [DG][DF] |[M:4/4] E>E EF G2 [GB][FA] | G>G G[GB] [Ge]2 [Ge][Bd] | %8
 ccBG [DG]2 [DF]2 |[M:3/4] E6 |[M:1/4] E>E |[M:4/4] [DF]2 [DF]>[FA] [Ac]2 [GB]>[FA] | %12
 [EG]3 [FA] [GB]2 [GB]2 | [Ge]2 [Fd][Ec] [Bd]2 [E=Ac]>[EAc] |[M:3/4] [DB]6 |[M:1/4] [B,DG][A,DF] | %16
[M:4/4] [G,E]>[G,B,E] [G,B,E][A,B,F] [B,EG]2 [EGB][B,FA] | %17
 [B,EG]>[B,EG] [B,EG][B,GB] [Ge]2 [Ge][Bd] | ccBG [DG]2 [DF]2 |[M:7/4] E6 z2 z2 z4 |] %20
V:2
 z4 z2 [E,B,E][E,A,B,] | [E,G,B,]>[E,G,B,] [E,G,B,][E,A,B,] [E,B,E]2 [E,E][E,B,] | %2
 [E,B,E]>[E,B,E] [E,B,E][E,B,] [E,B,]2 [E,B,][E,E] | %3
 [A,EA][A,EA][K:bass][G,E][E,B,E] [C,C]2 [F,=A,]2 |[M:3/4] [B,,B,]6 |[M:1/4] [B,,B,][B,,A,] | %6
[M:4/4] [E,G,]>[E,G,B,] [E,G,B,][E,A,B,] [E,B,E]2 [E,E][E,B,] | %7
 [E,B,E]>[E,B,E] [E,B,E][E,B,] [E,B,]2 [E,B,][E,E] | %8
 [A,EA][A,EA][K:bass][G,E][E,B,E] [B,,B,]2 [B,,A,]2 |[M:3/4] [E,G,]6 |[M:1/4] [E,G,]>[E,G,] | %11
[M:4/4] [B,,B,]2 [B,,B,]>[B,,B,] [B,,B,]2 [C,B,]>[D,B,] | [E,B,]4 [E,B,]2 [E,B,]2 | %13
 [C,C]2 [D,C][E,C] [F,B,]2 F,>F, |[M:3/4] B,,6 |[M:1/4] B,,B,, |[M:4/4] E,>E, E,E, E,2 E,E, | %17
 E,>E, E,E, [E,B,]2 [E,B,][E,E] | [A,EA][A,EA][K:bass][G,E][E,B,E] [B,,B,]2 [B,,A,]2 | %19
[M:7/4] [E,G,]6 z2 z2 z4 |] %20

